Sources/FrostedUI/Resources/Icons.xcassets/gif24.imageset/gif-24.svg

<svg width="24" height="24" viewBox="0 0 24 24" fill="none" xmlns="http://www.w3.org/2000/svg" data-fui-icon="true">
  <path
    d="M12 0C13.9711 0 15.495 -0.000143781 16.7139 0.100586C17.9415 0.202061 18.9265 0.409696 19.8066 0.864258C21.2343 1.60181 22.3982 2.76568 23.1357 4.19336C23.5903 5.07346 23.7979 6.05855 23.8994 7.28613C24.0001 8.50497 24 10.0289 24 12C24 13.9711 24.0001 15.495 23.8994 16.7139C23.7979 17.9415 23.5903 18.9265 23.1357 19.8066C22.3982 21.2343 21.2343 22.3982 19.8066 23.1357C18.9265 23.5903 17.9415 23.7979 16.7139 23.8994C15.495 24.0001 13.9711 24 12 24C10.0289 24 8.50497 24.0001 7.28613 23.8994C6.05855 23.7979 5.07346 23.5903 4.19336 23.1357C2.76568 22.3982 1.60181 21.2343 0.864258 19.8066C0.409696 18.9265 0.202061 17.9415 0.100586 16.7139C-0.000143781 15.495 0 13.9711 0 12C0 10.0289 -0.000143781 8.50497 0.100586 7.28613C0.202061 6.05855 0.409696 5.07346 0.864258 4.19336C1.60181 2.76568 2.76568 1.60181 4.19336 0.864258C5.07346 0.409696 6.05855 0.202061 7.28613 0.100586C8.50497 -0.000143781 10.0289 0 12 0ZM12 1.5C10.0037 1.5 8.55195 1.50026 7.40918 1.59473C6.27561 1.68844 5.51306 1.87125 4.88184 2.19727C3.73048 2.79207 2.79207 3.73048 2.19727 4.88184C1.87125 5.51306 1.68844 6.27561 1.59473 7.40918C1.50026 8.55195 1.5 10.0037 1.5 12C1.5 13.9963 1.50026 15.4481 1.59473 16.5908C1.68844 17.7244 1.87125 18.4869 2.19727 19.1182C2.79207 20.2695 3.73048 21.2079 4.88184 21.8027C5.51306 22.1288 6.27561 22.3116 7.40918 22.4053C8.55195 22.4997 10.0037 22.5 12 22.5C13.9963 22.5 15.4481 22.4997 16.5908 22.4053C17.7244 22.3116 18.4869 22.1288 19.1182 21.8027C20.2695 21.2079 21.2079 20.2695 21.8027 19.1182C22.1288 18.4869 22.3116 17.7244 22.4053 16.5908C22.4997 15.4481 22.5 13.9963 22.5 12C22.5 10.0037 22.4997 8.55195 22.4053 7.40918C22.3116 6.27561 22.1288 5.51306 21.8027 4.88184C21.2079 3.73048 20.2695 2.79207 19.1182 2.19727C18.4869 1.87125 17.7244 1.68844 16.5908 1.59473C15.4481 1.50026 13.9963 1.5 12 1.5ZM7.28809 8C8.33843 8.00003 9.07185 8.44192 9.53223 8.88965C9.75787 9.10918 9.9174 9.32849 10.0215 9.49512C10.0737 9.5787 10.113 9.65079 10.1406 9.70508C10.1544 9.73221 10.1655 9.75552 10.1738 9.77344C10.178 9.78234 10.1817 9.79049 10.1846 9.79688C10.1859 9.7999 10.1865 9.80322 10.1875 9.80566C10.188 9.80674 10.189 9.80767 10.1895 9.80859L10.1904 9.81055V9.81152L10.2168 9.88379C10.3289 10.2471 10.1496 10.6436 9.79199 10.7949C9.43429 10.9461 9.02536 10.7983 8.84277 10.4648L8.8125 10.4033V10.4043C8.81154 10.4022 8.80856 10.3953 8.80371 10.3857C8.79367 10.3661 8.77558 10.3326 8.74902 10.29C8.69465 10.203 8.60824 10.0835 8.48633 9.96484C8.25067 9.73567 7.87694 9.50003 7.28809 9.5H7.25C6.28358 9.5 5.50013 10.2836 5.5 11.25V12.749C5.50004 13.7155 6.28352 14.499 7.25 14.499H7.7998C8.32442 14.499 8.75 14.0735 8.75 13.5488V13H7.91699C7.50286 13 7.16712 12.6641 7.16699 12.25C7.16712 11.8359 7.50286 11.5 7.91699 11.5H9C9.69022 11.5001 10.2499 12.0598 10.25 12.75V13.5488C10.25 14.9019 9.15285 15.999 7.7998 15.999H7.25C5.4551 15.999 4.00004 14.5439 4 12.749V11.25C4.00013 9.45519 5.45516 8 7.25 8H7.28809ZM12.5 8C12.9141 8 13.2499 8.3359 13.25 8.75V15.249C13.25 15.6632 12.9142 15.999 12.5 15.999C12.0858 15.999 11.75 15.6632 11.75 15.249V8.75C11.7501 8.3359 12.0859 8 12.5 8ZM19.2471 8C19.6612 8 19.9969 8.3359 19.9971 8.75C19.9971 9.16421 19.6613 9.5 19.2471 9.5H16.5V11.249H18.71C19.1239 11.249 19.4596 11.5851 19.46 11.999C19.46 12.4132 19.1242 12.749 18.71 12.749H16.5V15.249C16.5 15.6632 16.1642 15.999 15.75 15.999C15.3358 15.999 15 15.6632 15 15.249V9.25C15.0001 8.55976 15.5597 8 16.25 8H19.2471Z"
    fill="currentColor"
  />
</svg>

<svg xmlns="http://www.w3.org/2000/svg" width="24" height="24" fill="none" data-fui-icon="true" viewBox="0 0 24 24"><path fill="currentColor" d="M12 0c1.971 0 3.495 0 4.714.1 1.228.102 2.213.31 3.093.764a7.75 7.75 0 0 1 3.329 3.33c.454.88.662 1.865.763 3.092C24 8.505 24 10.03 24 12s0 3.495-.1 4.714c-.102 1.228-.31 2.213-.764 3.093a7.75 7.75 0 0 1-3.33 3.329c-.88.454-1.864.662-3.092.763C15.495 24 13.97 24 12 24s-3.495 0-4.714-.1c-1.227-.102-2.213-.31-3.093-.764a7.75 7.75 0 0 1-3.329-3.33c-.454-.88-.662-1.864-.763-3.092C0 15.495 0 13.97 0 12s0-3.495.1-4.714C.203 6.06.41 5.073.865 4.193A7.75 7.75 0 0 1 4.194.864C5.073.41 6.058.202 7.285.101 8.505 0 10.03 0 12 0m0 1.5c-1.996 0-3.448 0-4.59.095-1.134.093-1.897.276-2.528.602a6.25 6.25 0 0 0-2.685 2.685c-.326.631-.509 1.394-.602 2.527C1.5 8.552 1.5 10.004 1.5 12s0 3.448.095 4.59c.093 1.134.276 1.897.602 2.528a6.25 6.25 0 0 0 2.685 2.685c.631.326 1.394.509 2.527.602 1.143.095 2.595.095 4.591.095s3.448 0 4.59-.095c1.134-.093 1.897-.276 2.528-.602a6.25 6.25 0 0 0 2.685-2.685c.326-.631.509-1.394.602-2.527.095-1.143.095-2.595.095-4.591s0-3.448-.095-4.59c-.093-1.134-.276-1.897-.602-2.528a6.25 6.25 0 0 0-2.685-2.685c-.631-.326-1.394-.509-2.527-.602C15.448 1.5 13.996 1.5 12 1.5M7.288 8c1.05 0 1.784.442 2.244.89a3.3 3.3 0 0 1 .609.815l.044.092.002.009.003.003v.002l.027.073a.75.75 0 0 1-1.374.58l-.03-.06-.01-.018a1.765 1.765 0 0 0-.317-.42c-.235-.23-.61-.466-1.198-.466H7.25a1.75 1.75 0 0 0-1.75 1.75v1.499c0 .966.784 1.75 1.75 1.75h.55a.95.95 0 0 0 .95-.95V13h-.833a.75.75 0 0 1 0-1.5H9c.69 0 1.25.56 1.25 1.25v.799a2.45 2.45 0 0 1-2.45 2.45h-.55A3.25 3.25 0 0 1 4 12.749V11.25A3.25 3.25 0 0 1 7.25 8zM12.5 8a.75.75 0 0 1 .75.75v6.499a.75.75 0 0 1-1.5 0V8.75A.75.75 0 0 1 12.5 8m6.747 0a.75.75 0 0 1 0 1.5H16.5v1.749h2.21a.75.75 0 0 1 0 1.5H16.5v2.5a.75.75 0 0 1-1.5 0V9.25c0-.69.56-1.25 1.25-1.25z"/></svg>
